images/global/icons/payment/card-mastercard.svg

<?xml version="1.0" encoding="UTF-8"?>
<svg width="48px" height="48px" viewBox="0 0 48 48" version="1.1" xmlns="http://www.w3.org/2000/svg" xmlns:xlink="http://www.w3.org/1999/xlink">
    <!-- Generator: Sketch 46.2 (44496) - http://www.bohemiancoding.com/sketch -->
    <title>card/mastercard</title>
    <desc>Created with Sketch.</desc>
    <defs>
        <linearGradient x1="0%" y1="0%" x2="50%" y2="100%" id="linearGradient-1">
            <stop stop-color="#FFFFFF" offset="0%"></stop>
            <stop stop-color="#F7F7F7" offset="22.3792251%"></stop>
            <stop stop-color="#F2F2F2" offset="100%"></stop>
        </linearGradient>
        <rect id="path-2" x="0" y="0" width="36" height="22" rx="2"></rect>
        <filter x="-9.7%" y="-11.4%" width="119.4%" height="131.8%" filterUnits="objectBoundingBox" id="filter-3">
            <feOffset dx="0" dy="1" in="SourceAlpha" result="shadowOffsetOuter1"></feOffset>
            <feGaussianBlur stdDeviation="1" in="shadowOffsetOuter1" result="shadowBlurOuter1"></feGaussianBlur>
            <feColorMatrix values="0 0 0 0 0.325490196   0 0 0 0 0.376470588   0 0 0 0 0.419607843  0 0 0 1 0" type="matrix" in="shadowBlurOuter1"></feColorMatrix>
        </filter>
        <polygon id="path-4" points="0.00543589744 2.30769231 17.9276581 2.30769231 17.9276581 0.0597362637 0.00543589744 0.0597362637 0.00543589744 2.30769231"></polygon>
        <polygon id="path-6" points="0 14.8916374 19.9128205 14.8916374 19.9128205 -6.5934066e-05 0 -6.5934066e-05"></polygon>
    </defs>
    <g id="Symbols" stroke="none" stroke-width="1" fill="none" fill-rule="evenodd">
        <g id="card/mastercard">
            <g id="Icon" transform="translate(6.000000, 13.000000)">
                <g id="Card">
                    <use fill="black" fill-opacity="1" filter="url(#filter-3)" xlink:href="#path-2"></use>
                    <use fill="url(#linearGradient-1)" fill-rule="evenodd" xlink:href="#path-2"></use>
                </g>
                <g id="Mastercard" transform="translate(8.000000, 3.000000)">
                    <g id="Group-3" transform="translate(1.025641, 12.583945)">
                        <mask id="mask-5" fill="white">
                            <use xlink:href="#path-4"></use>
                        </mask>
                        <g id="Clip-2"></g>
                        <path d="M3.27671795,1.48028571 C3.27671795,1.20336264 3.46475214,0.976054945 3.77244444,0.976054945 C4.0662906,0.976054945 4.2645812,1.19347253 4.2645812,1.48028571 C4.2645812,1.7670989 4.0662906,1.98468132 3.77244444,1.98468132 C3.46475214,1.98468132 3.27671795,1.75720879 3.27671795,1.48028571 L3.27671795,1.48028571 Z M4.59962393,1.48028571 L4.59962393,0.692538462 L4.24406838,0.692538462 L4.24406838,0.883747253 C4.13124786,0.741989011 3.96030769,0.652978022 3.728,0.652978022 C3.26988034,0.652978022 2.91090598,0.999131868 2.91090598,1.48028571 C2.91090598,1.9616044 3.26988034,2.30775824 3.728,2.30775824 C3.96030769,2.30775824 4.13124786,2.21874725 4.24406838,2.07698901 L4.24406838,2.2681978 L4.59962393,2.2681978 L4.59962393,1.48028571 Z M16.6047521,1.48028571 C16.6047521,1.20336264 16.7927863,0.976054945 17.1004786,0.976054945 C17.3944957,0.976054945 17.5926154,1.19347253 17.5926154,1.48028571 C17.5926154,1.7670989 17.3944957,1.98468132 17.1004786,1.98468132 C16.7927863,1.98468132 16.6047521,1.75720879 16.6047521,1.48028571 L16.6047521,1.48028571 Z M17.9276581,1.48028571 L17.9276581,0.0597362637 L17.5721026,0.0597362637 L17.5721026,0.883747253 C17.459453,0.741989011 17.2885128,0.652978022 17.0560342,0.652978022 C16.5979145,0.652978022 16.2391111,0.999131868 16.2391111,1.48028571 C16.2391111,1.9616044 16.5979145,2.30775824 17.0560342,2.30775824 C17.2885128,2.30775824 17.459453,2.21874725 17.5721026,2.07698901 L17.5721026,2.2681978 L17.9276581,2.2681978 L17.9276581,1.48028571 Z M9.00919658,0.959571429 C9.23825641,0.959571429 9.38526496,1.09803297 9.42287179,1.34182418 L8.57517949,1.34182418 C8.61278632,1.11435165 8.75637607,0.959571429 9.00919658,0.959571429 L9.00919658,0.959571429 Z M9.01603419,0.652978022 C8.53757265,0.652978022 8.20252991,0.989241758 8.20252991,1.48028571 C8.20252991,1.98138462 8.55124786,2.30775824 9.03996581,2.30775824 C9.28611966,2.30775824 9.51176068,2.24841758 9.71005128,2.08687912 L9.53569231,1.83303297 C9.39894017,1.93852747 9.2245812,1.99786813 9.06047863,1.99786813 C8.8314188,1.99786813 8.62304274,1.89567033 8.57176068,1.61215385 L9.78526496,1.61215385 C9.78868376,1.5692967 9.79210256,1.52643956 9.79210256,1.48028571 C9.78868376,0.989241758 9.47415385,0.652978022 9.01603419,0.652978022 L9.01603419,0.652978022 Z M13.3061197,1.48028571 C13.3061197,1.20336264 13.4941538,0.976054945 13.8018462,0.976054945 C14.0956923,0.976054945 14.2939829,1.19347253 14.2939829,1.48028571 C14.2939829,1.7670989 14.0956923,1.98468132 13.8018462,1.98468132 C13.4941538,1.98468132 13.3061197,1.75720879 13.3061197,1.48028571 L13.3061197,1.48028571 Z M14.6290256,1.48028571 L14.6290256,0.692538462 L14.2734701,0.692538462 L14.2734701,0.883747253 C14.1606496,0.741989011 13.9897094,0.652978022 13.7574017,0.652978022 C13.2992821,0.652978022 12.9403077,0.999131868 12.9403077,1.48028571 C12.9403077,1.9616044 13.2992821,2.30775824 13.7574017,2.30775824 C13.9897094,2.30775824 14.1606496,2.21874725 14.2734701,2.07698901 L14.2734701,2.2681978 L14.6290256,2.2681978 L14.6290256,1.48028571 Z M11.299453,1.48028571 C11.299453,1.95830769 11.6447521,2.30775824 12.1712479,2.30775824 C12.4174017,2.30775824 12.5813333,2.25501099 12.7591111,2.11984615 L12.5883419,1.84292308 C12.4550085,1.93523077 12.3148376,1.98468132 12.1609915,1.98468132 C11.8772308,1.98138462 11.6686838,1.78358242 11.6686838,1.48028571 C11.6686838,1.17715385 11.8772308,0.979351648 12.1609915,0.976054945 C12.3148376,0.976054945 12.4550085,1.02550549 12.5883419,1.11781319 L12.7591111,0.84089011 C12.5813333,0.705725275 12.4174017,0.652978022 12.1712479,0.652978022 C11.6447521,0.652978022 11.299453,1.00242857 11.299453,1.48028571 L11.299453,1.48028571 Z M15.8801368,0.652978022 C15.6750085,0.652978022 15.5416752,0.745285714 15.4493675,0.883747253 L15.4493675,0.692538462 L15.0974017,0.692538462 L15.0974017,2.2681978 L15.4527863,2.2681978 L15.4527863,1.38468132 C15.4527863,1.12424176 15.5690256,0.979351648 15.8015043,0.979351648 C15.8732991,0.979351648 15.9485128,0.989241758 16.0237265,1.01891209 L16.1331282,0.695835165 C16.0544957,0.666164835 15.9519316,0.652978022 15.8801368,0.652978022 L15.8801368,0.652978022 Z M6.35671795,0.817813187 C6.18577778,0.709021978 5.94988034,0.652978022 5.69005128,0.652978022 C5.27637607,0.652978022 5.00988034,0.844186813 5.00988034,1.15720879 C5.00988034,1.41435165 5.208,1.57259341 5.57381197,1.62204396 L5.74133333,1.64512088 C5.93620513,1.67149451 6.02851282,1.72094505 6.02851282,1.80995604 C6.02851282,1.93193407 5.89859829,2.00116484 5.65586325,2.00116484 C5.4097094,2.00116484 5.23193162,1.92534066 5.1122735,1.83632967 L4.94492308,2.10336264 C5.13962393,2.24165934 5.38577778,2.30775824 5.65244444,2.30775824 C6.12423932,2.30775824 6.39757265,2.09347253 6.39757265,1.79347253 C6.39757265,1.51654945 6.18235897,1.37149451 5.82680342,1.32204396 L5.65928205,1.29896703 C5.5054359,1.27918681 5.38235897,1.24968132 5.38235897,1.14418681 C5.38235897,1.0288022 5.49859829,0.959571429 5.69347009,0.959571429 C5.90201709,0.959571429 6.1037265,1.0353956 6.20287179,1.09473626 L6.35671795,0.817813187 Z M10.9406496,0.652978022 C10.7355214,0.652978022 10.602188,0.745285714 10.5098803,0.883747253 L10.5098803,0.692538462 L10.1577436,0.692538462 L10.1577436,2.2681978 L10.5132991,2.2681978 L10.5132991,1.38468132 C10.5132991,1.12424176 10.6295385,0.979351648 10.8620171,0.979351648 C10.933812,0.979351648 11.0090256,0.989241758 11.0842393,1.01891209 L11.193641,0.695835165 C11.1150085,0.666164835 11.0124444,0.652978022 10.9406496,0.652978022 L10.9406496,0.652978022 Z M7.90851282,0.692538462 L7.32748718,0.692538462 L7.32748718,0.214516484 L6.96851282,0.214516484 L6.96851282,0.692538462 L6.63688889,0.692538462 L6.63688889,1.00572527 L6.96851282,1.00572527 L6.96851282,1.72424176 C6.96851282,2.09017582 7.11552137,2.30775824 7.53603419,2.30775824 C7.6897094,2.30775824 7.86748718,2.2616044 7.98030769,2.18578022 L7.87774359,1.89237363 C7.77176068,1.95171429 7.65552137,1.98138462 7.56338462,1.98138462 C7.38560684,1.98138462 7.32748718,1.87589011 7.32748718,1.71764835 L7.32748718,1.00572527 L7.90851282,1.00572527 L7.90851282,0.692538462 Z M2.59637607,2.2681978 L2.59637607,1.27918681 C2.59637607,0.906824176 2.35039316,0.656274725 1.95381197,0.652978022 C1.74526496,0.649681319 1.52988034,0.712318681 1.37962393,0.933197802 C1.26680342,0.758472527 1.08902564,0.652978022 0.839452991,0.652978022 C0.665094017,0.652978022 0.494153846,0.702428571 0.360820513,0.887043956 L0.360820513,0.692538462 L0.00543589744,0.692538462 L0.00543589744,2.2681978 L0.364239316,2.2681978 L0.364239316,1.39457143 C0.364239316,1.12110989 0.521504274,0.976054945 0.764239316,0.976054945 C1.00013675,0.976054945 1.11979487,1.12424176 1.11979487,1.39127473 L1.11979487,2.2681978 L1.47859829,2.2681978 L1.47859829,1.39457143 C1.47859829,1.12110989 1.64270085,0.976054945 1.87859829,0.976054945 C2.12133333,0.976054945 2.23757265,1.12424176 2.23757265,1.39127473 L2.23757265,2.2681978 L2.59637607,2.2681978 Z" id="Fill-1" fill="#000000" mask="url(#mask-5)"></path>
                    </g>
                    <mask id="mask-7" fill="white">
                        <use xlink:href="#path-6"></use>
                    </mask>
                    <g id="Clip-5"></g>
                    <polygon id="Fill-4" fill="#FF5F00" mask="url(#mask-7)" points="7.26410256 10.5994945 12.6487179 10.5994945 12.6487179 1.26883516 7.26410256 1.26883516"></polygon>
                    <path d="M7.60603419,5.93406593 C7.60603419,4.0410989 8.52517949,2.35532967 9.95646154,1.26873626 C8.90962393,0.474065934 7.58894017,0 6.15338462,0 C2.75492308,0 5.12820513e-05,2.65681319 5.12820513e-05,5.93406593 C5.12820513e-05,9.21131868 2.75492308,11.8681319 6.15338462,11.8681319 C7.58894017,11.8681319 8.90962393,11.3940659 9.95646154,10.5993956 C8.52517949,9.5128022 7.60603419,7.82703297 7.60603419,5.93406593" id="Fill-6" fill="#EB001B" mask="url(#mask-7)"></path>
                    <path d="M19.9128889,5.93406593 C19.9128889,9.21131868 17.1578462,11.8681319 13.7595556,11.8681319 C12.324,11.8681319 11.0031453,11.3940659 9.95647863,10.5993956 C11.3877607,9.5128022 12.306906,7.82703297 12.306906,5.93406593 C12.306906,4.0410989 11.3877607,2.35532967 9.95647863,1.26873626 C11.0031453,0.474065934 12.324,0 13.7595556,0 C17.1578462,0 19.9128889,2.65681319 19.9128889,5.93406593" id="Fill-7" fill="#F79E1B" mask="url(#mask-7)"></path>
                </g>
            </g>
        </g>
    </g>
</svg>

<svg width="48" height="48" viewBox="0 0 48 48" xmlns="http://www.w3.org/2000/svg" xmlns:xlink="http://www.w3.org/1999/xlink"><title>card/mastercard</title><defs><linearGradient x1="0%" y1="0%" x2="50%" y2="100%" id="linearGradient-1"><stop stop-color="#FFF" offset="0%"/><stop stop-color="#F7F7F7" offset="22.379%"/><stop stop-color="#F2F2F2" offset="100%"/></linearGradient><rect id="path-2" width="36" height="22" rx="2"/><filter x="-9.7%" y="-11.4%" width="119.4%" height="131.8%" filterUnits="objectBoundingBox" id="filter-3"><feOffset dy="1" in="SourceAlpha" result="shadowOffsetOuter1"/><feGaussianBlur stdDeviation="1" in="shadowOffsetOuter1" result="shadowBlurOuter1"/><feColorMatrix values="0 0 0 0 0.325490196 0 0 0 0 0.376470588 0 0 0 0 0.419607843 0 0 0 1 0" in="shadowBlurOuter1"/></filter><path id="path-4" d="M.005 2.308h17.923V.06H.005v2.248z"/><path id="path-6" d="M0 14.892h19.913V0H0z"/></defs><g id="Symbols" fill="none" fill-rule="evenodd"><g id="card/mastercard"><g id="Icon" transform="translate(6 13)"><g id="Card"><use fill="#000" filter="url(#filter-3)" xlink:href="#path-2"/><use fill="url(#linearGradient-1)" xlink:href="#path-2"/></g><g id="Mastercard" transform="translate(8 3)"><g id="Group-3" transform="translate(1.026 12.584)"><mask id="mask-5" fill="#fff"><use xlink:href="#path-4"/></mask><path d="M3.277 1.48c0-.277.188-.504.495-.504.294 0 .493.217.493.504 0 .287-.199.505-.493.505-.307 0-.495-.228-.495-.505zm1.323 0V.693h-.356v.19a.629.629 0 0 0-.516-.23.803.803 0 0 0-.817.827c0 .482.359.828.817.828a.629.629 0 0 0 .516-.231v.191H4.6V1.48zm12.005 0c0-.277.188-.504.495-.504.294 0 .493.217.493.504 0 .287-.199.505-.493.505-.307 0-.495-.228-.495-.505zm1.323 0V.06h-.356v.824a.628.628 0 0 0-.516-.231.803.803 0 0 0-.817.827c0 .482.359.828.817.828a.628.628 0 0 0 .516-.231v.191h.356V1.48zM9.009.96c.23 0 .376.138.414.382h-.848c.038-.228.181-.382.434-.382zm.007-.307c-.478 0-.813.336-.813.827 0 .501.348.828.837.828.246 0 .472-.06.67-.221l-.174-.254a.797.797 0 0 1-.476.165c-.229 0-.437-.102-.488-.386h1.213c.004-.043.007-.086.007-.132C9.79.99 9.474.653 9.016.653zm4.29.827c0-.277.188-.504.496-.504.294 0 .492.217.492.504 0 .287-.198.505-.492.505-.308 0-.496-.228-.496-.505zm1.323 0V.693h-.356v.19a.629.629 0 0 0-.516-.23.803.803 0 0 0-.817.827c0 .482.36.828.817.828a.629.629 0 0 0 .516-.231v.191h.356V1.48zm-3.33 0c0 .478.346.828.872.828.246 0 .41-.053.588-.188l-.17-.277a.736.736 0 0 1-.428.142.479.479 0 0 1-.492-.505c0-.303.208-.5.492-.504.154 0 .294.05.427.142L12.76.84a.876.876 0 0 0-.588-.188c-.526 0-.872.35-.872.827zM15.88.653a.486.486 0 0 0-.43.23v-.19h-.353v1.575h.356v-.883c0-.26.116-.406.349-.406.071 0 .147.01.222.04l.11-.323a.785.785 0 0 0-.254-.043zM6.357.818C6.186.709 5.95.653 5.69.653c-.414 0-.68.191-.68.504 0 .257.198.416.564.465l.167.023c.195.026.288.076.288.165 0 .122-.13.191-.373.191a.892.892 0 0 1-.544-.165l-.167.267c.195.139.44.205.707.205.472 0 .746-.215.746-.515 0-.276-.216-.422-.571-.471l-.168-.023c-.154-.02-.277-.05-.277-.155 0-.115.117-.184.311-.184.209 0 .41.075.51.135l.154-.277zM10.94.653a.486.486 0 0 0-.431.23v-.19h-.352v1.575h.355v-.883c0-.26.117-.406.349-.406.072 0 .147.01.222.04l.11-.323a.785.785 0 0 0-.253-.043zm-3.032.04h-.582V.215H6.97v.478h-.332v.313h.332v.718c0 .366.147.584.567.584a.858.858 0 0 0 .444-.122l-.102-.294a.674.674 0 0 1-.315.09c-.177 0-.236-.106-.236-.264v-.712h.582V.693zM2.596 2.268V1.28c0-.372-.246-.623-.642-.626-.209-.003-.424.06-.574.28a.606.606 0 0 0-.54-.28.547.547 0 0 0-.48.234V.693H.006v1.575h.36v-.873c0-.274.157-.419.4-.419.235 0 .355.148.355.415v.877h.359v-.873c0-.274.164-.419.4-.419.242 0 .359.148.359.415v.877h.358z" id="Fill-1" fill="#000" mask="url(#mask-5)"/></g><mask id="mask-7" fill="#fff"><use xlink:href="#path-6"/></mask><path id="Fill-4" fill="#FF5F00" mask="url(#mask-7)" d="M7.264 10.6h5.385V1.268H7.264z"/><path d="M7.606 5.934c0-1.893.92-3.579 2.35-4.665A6.272 6.272 0 0 0 6.153 0C2.755 0 0 2.657 0 5.934s2.755 5.934 6.153 5.934A6.272 6.272 0 0 0 9.956 10.6c-1.43-1.086-2.35-2.772-2.35-4.665" id="Fill-6" fill="#EB001B" mask="url(#mask-7)"/><path d="M19.913 5.934c0 3.277-2.755 5.934-6.153 5.934A6.271 6.271 0 0 1 9.956 10.6c1.432-1.086 2.35-2.772 2.35-4.665 0-1.893-.918-3.579-2.35-4.665A6.271 6.271 0 0 1 13.76 0c3.398 0 6.153 2.657 6.153 5.934" id="Fill-7" fill="#F79E1B" mask="url(#mask-7)"/></g></g></g></g></svg>
